dist/assets/images/icons/ico-slide-15.svg

<svg width="34" height="34" viewBox="0 0 34 34" fill="none" xmlns="http://www.w3.org/2000/svg">
<path d="M27.8559 7.28203L30.9422 12.6129H32.7683L33.7307 9.2469C33.9095 8.62065 34 7.9719 34 7.32042C34 5.29797 33.127 3.37477 31.6052 2.04274L29.2707 0H26.0955L24.5403 1.55523L25.704 3.56561L11.5353 11.8715C11.0368 12.1632 10.6837 12.6326 10.5411 13.1925C10.398 13.7525 10.4835 14.3326 10.7807 14.8278C11.0769 15.3219 11.5452 15.6526 12.0651 15.7925V22.4839H10.2252L1.09677 29.9003V32.9032H0V34H34V32.9032H26.871V31.2581L24.6133 13.1613H23.5806V9.78816L27.8559 7.28203ZM26.5496 1.09677H28.8583L30.883 2.86806C32.1667 3.99171 32.9032 5.61439 32.9032 7.32042C32.9032 7.87045 32.8265 8.41774 32.6756 8.94639L31.9414 11.5161H31.5739L25.9113 1.7351L26.5496 1.09677ZM11.7207 14.2641C11.5748 14.0223 11.5337 13.7376 11.6033 13.464C11.6735 13.1904 11.8457 12.9606 12.0903 12.8175L26.2535 4.51487L27.3064 6.33332L13.1525 14.6304C12.6568 14.9211 12.0152 14.7549 11.7207 14.2641ZM13.1613 15.8001C13.3488 15.7519 13.5325 15.6784 13.7069 15.5758L14.2581 15.2528V22.4839H13.1613V15.8001ZM2.19355 30.4223L10.614 23.5806H15.9032V25.7742H10.4194V32.9032H8.22581V30.1613H4.93548V32.9032H2.19355V30.4223ZM17 26.871V32.9032H11.5161V26.871H17ZM7.12903 32.9032H6.03226V31.2581H7.12903V32.9032ZM23.5806 29.6129H22.4839V27.4194H23.5806V29.6129ZM23.5806 26.3226H22.4839V24.129H23.5806V26.3226ZM23.5806 23.0323H22.4839V20.8387H23.5806V23.0323ZM22.4839 19.7419V17.5484H23.5806V19.7419H22.4839ZM22.4839 30.7097H23.5806V32.9032H22.4839V30.7097ZM23.5806 16.4516H22.4839V14.2581H23.5806V16.4516ZM21.3871 32.9032H20.2903V31.2921L21.3871 22.5179V32.9032ZM25.7742 32.9032H24.6774V22.5179L25.7742 31.2921V32.9032ZM22.4839 13.1613H21.4513L19.1979 31.1901L19.1946 32.9032H18.0968V25.7742H17V22.4839H15.3548V14.6101L22.4839 10.4309V13.1613Z" fill="#DF0112"/>
<path d="M7.12905 20.8387C8.03608 20.8387 8.77421 20.1006 8.77421 19.1936C8.77421 18.2865 8.03608 17.5484 7.12905 17.5484C6.22202 17.5484 5.48389 18.2865 5.48389 19.1936C5.48389 20.1006 6.22202 20.8387 7.12905 20.8387ZM7.12905 18.6452C7.43176 18.6452 7.67744 18.8909 7.67744 19.1936C7.67744 19.4963 7.43176 19.7419 7.12905 19.7419C6.82634 19.7419 6.58066 19.4963 6.58066 19.1936C6.58066 18.8909 6.82634 18.6452 7.12905 18.6452Z" fill="#0000FF"/>
<path d="M1.64516 25.2258C2.55219 25.2258 3.29032 24.4877 3.29032 23.5806C3.29032 22.6736 2.55219 21.9355 1.64516 21.9355C0.738129 21.9355 0 22.6736 0 23.5806C0 24.4877 0.738129 25.2258 1.64516 25.2258ZM1.64516 23.0323C1.94787 23.0323 2.19355 23.2779 2.19355 23.5806C2.19355 23.8834 1.94787 24.129 1.64516 24.129C1.34245 24.129 1.09677 23.8834 1.09677 23.5806C1.09677 23.2779 1.34245 23.0323 1.64516 23.0323Z" fill="#0000FF"/>
</svg>

<svg width="34" height="34" fill="none" xmlns="http://www.w3.org/2000/svg"><path d="M27.856 7.282l3.086 5.33h1.826l.963-3.365a7.019 7.019 0 00-2.126-7.204L29.271 0h-3.175L24.54 1.555l1.164 2.01-14.169 8.306a2.128 2.128 0 00-.994 1.322 2.138 2.138 0 001.524 2.6v6.69h-1.84L1.097 29.9v3.003H0V34h34v-1.097h-7.129v-1.645l-2.258-18.097h-1.032V9.788l4.275-2.506zM26.55 1.097h2.308l2.025 1.771a5.917 5.917 0 011.793 6.078l-.735 2.57h-.367l-5.663-9.78.639-.64zM11.72 14.264a1.042 1.042 0 01-.117-.8c.07-.274.243-.503.487-.646l14.163-8.303 1.053 1.818-14.154 8.297a1.054 1.054 0 01-1.431-.366zm1.441 1.536a2.11 2.11 0 00.546-.224l.551-.323v7.23h-1.097V15.8zM2.194 30.422l8.42-6.841h5.29v2.193h-5.485v7.13H8.226V30.16h-3.29v2.742H2.193v-2.48zM17 26.871v6.032h-5.484v-6.032H17zm-9.871 6.032H6.032v-1.645H7.13v1.645zm16.452-3.29h-1.097v-2.194h1.097v2.194zm0-3.29h-1.097v-2.194h1.097v2.194zm0-3.29h-1.097v-2.194h1.097v2.193zm-1.097-3.291v-2.194h1.097v2.194h-1.097zm0 10.968h1.097v2.193h-1.097V30.71zm1.097-14.258h-1.097v-2.194h1.097v2.194zm-2.194 16.451H20.29v-1.61l1.097-8.775v10.385zm4.387 0h-1.097V22.518l1.097 8.774v1.611zm-3.29-19.742H21.45l-2.253 18.03-.003 1.712h-1.098v-7.129H17v-3.29h-1.645V14.61l7.129-4.18v2.731z" fill="#DF0112"/><path d="M7.13 20.839a1.647 1.647 0 00-.001-3.291c-.907 0-1.645.739-1.645 1.646 0 .907.738 1.645 1.645 1.645zm0-2.194a.549.549 0 11-.001 1.097.549.549 0 010-1.097zm-5.485 6.581c.907 0 1.645-.738 1.645-1.645s-.738-1.645-1.645-1.645S0 22.674 0 23.58s.738 1.645 1.645 1.645zm0-2.194a.549.549 0 110 1.097.549.549 0 010-1.097z" fill="#00F"/></svg>
